X: 31
T: Tam Lin
C: Davey Arthur
Z: jean-christophe.louis
S: https://thesession.org/tunes/248#setting54106
R: reel
M: 4/4
L: 1/8
K: Amin
|:EA~A2 GABG|F2AF cFAF|G2BG dGBG|cedc BAGF|
EA~A2 GABG|F2AF cFAF|G2BG dGBG|cBAG A3:|
|:ae~e2 cAce|ae~e2 cAce|gage dedc|BGBd ~g2eg|
ae~e2 cAce|ae~e2 cBAG|FEFG AGAB|cABG A3:|

%-------------------- TUNE SEPARATOR --------------------%

